X: 3111
T: Beare Island
R: reel
M: 4/4
K: Edorian
EB^GB AGEc|(3dcB cA Beec|(3ddd fd AFDF|(3GFE FD EDB,A,|
B,EEF GFGA|(3Bcd GA Bcdf|g2 fg egfe|1 dBAF E3 D:|2 dBAF E3 A||
Beef (3gfe fd|BdAG FADA|Beef (3gfe fd|(3efe df e3 f|edBc (3ddd cd|
BcdB AFDF|GB B2 AFDF|1 (3GFE FD E3 A:|2 (3GFE FD E3 D||

